X:1
T:Rhine, HM
T:Rhine, HM
T:Anonymous, 1856
T:Public Domain Courtesy of the Cyber Hymnal™
C:Anonymous, 1856
Z:Public Domain
Z:Courtesy of the Cyber Hymnal™
%%score ( 1 2 ) ( 3 4 )
L:1/8
Q:1/4=117
M:4/4
K:F
V:1 treble 
V:2 treble 
V:3 bass 
V:4 bass 
V:1
 C4 | F2 F2 A2 F2 | c4 [FA]4 | [FB]2 [FB]2 [FA]2 [EG]2 | [FA]4 C4 | [CF]2 [CF]2 [CA]2 F2 | %6
 [Ec]4 G4 | [FA]2 [Ad]2 [Gc]2 [F=B]2 | [Ec]4 z2 C2 | E4 G4 | B4 z2 C2 | F4 A4 | c4 z2 F2 | %13
 [Fd]4 (f2 d2) | [Ec]6 [FA]2 | [FB]4 [EG]4 | !fermata!F4 |] %17
V:2
 C4 | F2 F2 A2 F2 | c4 x4 | x8 | x4 C4 | x6 F2 | x4 G4 | x8 | x6 C2 | E4 G4 | B4 C2 x2 | F4 A4 | %12
 c4 F2 x2 | x4 F4 | x8 | x8 | F4 |] %17
V:3
 C,4 | F,2 F,2 A,2 F,2 | [C,C]4 [F,C]4 | [B,,D]2 [B,,D]2 [C,C]2 [C,C]2 | [F,C]4 [F,A,]4 | %5
 [F,A,]2 [F,A,]2 [F,C]2 [F,A,]2 | [C,G,]4 [E,C]4 | [F,C]2 [D,F]2 [G,E]2 [G,,D]2 | [C,C]4 z2 C,2 | %9
 E,4 G,4 | B,4 z2 C,2 | F,4 A,4 | C4 z2 F,2 | [B,,B,]4 (D2 B,2) | [C,G,]6 [D,F,]2 | %15
 [B,,D]4 (C2 B,2) | !fermata![F,A,]4 |] %17
V:4
 C,4 | F,2 F,2 A,2 F,2 | x8 | x8 | x8 | x8 | x8 | x8 | x6 C,2 | E,4 G,4 | B,4 C,2 x2 | F,4 A,4 | %12
 C4 F,2 x2 | x4 B,,4 | x8 | x4 C,4 | x4 |] %17

